symbols/default/27n.svg

<svg xmlns="http://www.w3.org/2000/svg" fill="none" viewBox="0 0 100 100">
  <g clip-path="url(#a)">
    <path fill="url(#b)" fill-rule="evenodd" d="M28.443 13.565c0-3.869-1.116-7.514-2.902-10.638 9.666 1.234 17.247 8.91 18.378 18.607A29.67 29.67 0 0 0 33.9 30.4h-1.1c-4.9 0-9.4 2.3-12.1 6.2-4.058.243-7.853 1.673-11.01 4.128a21.853 21.853 0 0 1-5.275-6.111c.892.149 1.785.223 2.752.223 11.754 0 21.276-9.522 21.276-21.275Z" clip-rule="evenodd"/>
    <path fill="#999" fill-rule="evenodd" d="M57.7 23c11.7 0 21.7 8.6 23.6 19.9C87.5 44.5 92 50.2 92 56.8c0 7.9-6.5 14.3-14.4 14.3H61.363c-.406-1.049-1.097-1.815-2.163-2.3l-4-1.7 2.2-12.3c.4-1.9-.8-3.8-2.6-4.5-.4-.2-.8-.3-1.2-.3-1.4 0-2.8.8-3.5 2.1l-10.328 19H21.9c-3.9 0-7.6-1.5-10.3-4.2-2.9-2.7-4.5-6.4-4.6-10.5v-.2c0-3.8 1.5-7.4 4.2-10.2 2.8-2.9 6.6-4.5 10.7-4.5.6 0 1.1 0 1.7.1 1.4-3.7 5-6.2 9.2-6.2 1.2 0 2.4.2 3.6.7 4-8 12.2-13.1 21.3-13.1Z" clip-rule="evenodd"/>
    <path fill="url(#c)" fill-rule="evenodd" d="M57.7 23c11.7 0 21.7 8.6 23.6 19.9C87.5 44.5 92 50.2 92 56.8c0 7.9-6.5 14.3-14.4 14.3H61.363c-.406-1.049-1.097-1.815-2.163-2.3l-4-1.7 2.2-12.3c.4-1.9-.8-3.8-2.6-4.5-.4-.2-.8-.3-1.2-.3-1.4 0-2.8.8-3.5 2.1l-10.328 19H21.9c-3.9 0-7.6-1.5-10.3-4.2-2.9-2.7-4.5-6.4-4.6-10.5v-.2c0-3.8 1.5-7.4 4.2-10.2 2.8-2.9 6.6-4.5 10.7-4.5.6 0 1.1 0 1.7.1 1.4-3.7 5-6.2 9.2-6.2 1.2 0 2.4.2 3.6.7 4-8 12.2-13.1 21.3-13.1Z" clip-rule="evenodd" opacity=".6" style="mix-blend-mode:multiply"/>
    <g filter="url(#d)" opacity=".3" style="mix-blend-mode:multiply">
      <path fill="#B6B6B6" fill-rule="evenodd" d="M44.073 63.187c-6.589.45-13.618.813-14.573.813-6.5 0-11 5.1-11 5.1h22.359l3.214-5.913Zm12.412-3.27L57.4 54.8c.051-.243.076-.486.077-.727.648-.239 1.17-.47 1.17-.47s4.352-1.602 5.103-1.602c.75 0 .374-2.963.14-4.81l-.14-1.32c0-.362-.448-.885-1-1.53-.777-.908-1.762-2.057-2-3.34-.175-.94.026-2.082.172-2.91.091-.516.16-.91.104-1.058.112.053.922.327.922.327 1.948.66 5.03 1.74 7.802 3.64 1.658 1.138 3.941 3.314 3.941 3.314s1.645 1.272 2.059 1.687c1 1 4 4 6 4h5L89 51.59l.5 3.21c0 7.9-6.5 14.3-14.4 14.3H59.758c-.173-.11-.36-.21-.558-.301l-4-1.7.926-5.178c.556-.355.562-1.108.359-2.004Zm4.505-22.916c.014-.004.026.007.036.032 0 0-.05-.029-.036-.032Z" clip-rule="evenodd"/>
    </g>
    <path fill="#FF9D00" fill-rule="evenodd" d="M50.8 69.4 53.6 54 43 73.5l7.1 3L45.5 94l12.2-21.6-6.9-3Z" clip-rule="evenodd"/>
    <path fill="#00B8F1" d="M26.7 82.5h-2.8l1.4-2.5c.4-.6.2-1.5-.5-1.8-.7-.4-1.5-.2-1.9.5l-1.4 2.4-1.4-2.4c-.4-.7-1.2-.9-1.8-.5-.4.2-.6.5-.7.8-.1.3 0 .7.1 1l1.4 2.4h-2.7c-.8.1-1.4.7-1.4 1.4s.6 1.4 1.4 1.4h2.8l-1.4 2.4c-.2.3-.2.7-.1 1 .1.3.3.6.6.8.6.4 1.5.1 1.8-.5l1.4-2.4 1.4 2.5c.2.4.7.7 1.2.7.2 0 .5-.1.7-.2.6-.4.9-1.2.5-1.8l-1.4-2.5h2.8c.7 0 1.4-.6 1.4-1.4 0-.8-.7-1.3-1.4-1.3ZM77.7 91.5h-2.8l1.4-2.5c.4-.6.2-1.5-.5-1.8-.7-.4-1.5-.2-1.9.5l-1.4 2.4-1.4-2.4c-.4-.7-1.2-.9-1.8-.5-.4.2-.6.5-.7.8-.1.3 0 .7.1 1l1.4 2.4h-2.7c-.8.1-1.4.7-1.4 1.4s.6 1.4 1.4 1.4h2.8l-1.4 2.4c-.2.3-.2.7-.1 1 .1.3.3.6.6.8.6.4 1.5.1 1.8-.5l1.4-2.4 1.4 2.5c.2.4.7.7 1.2.7.2 0 .5-.1.7-.2.6-.4.9-1.2.5-1.8l-1.4-2.5h2.8c.7 0 1.4-.6 1.4-1.4 0-.8-.7-1.3-1.4-1.3Z"/>
    <path fill="#006EDB" d="M86.5 92c-.3 0-.7-.1-1-.2-1.3-.6-1.8-2-1.3-3.3l3.5-8c.6-1.3 2-1.8 3.3-1.3 1.3.6 1.8 2 1.3 3.3l-3.5 8c-.4 1-1.3 1.5-2.3 1.5ZM58.5 92c-.3 0-.7-.1-1-.2-1.3-.6-1.8-2-1.3-3.3l3.5-8c.6-1.3 2-1.8 3.3-1.3 1.3.6 1.8 2 1.3 3.3l-3.5 8c-.4 1-1.3 1.5-2.3 1.5ZM33.5 99c-.3 0-.7-.1-1-.2-1.3-.6-1.8-2-1.3-3.3l3.5-8c.6-1.3 2-1.8 3.3-1.3 1.3.6 1.8 2 1.3 3.3l-3.5 8c-.4 1-1.3 1.5-2.3 1.5Z"/>
  </g>
  <defs>
    <linearGradient id="b" x1="12.914" x2="40.256" y1="43.464" y2="10.878" gradientUnits="userSpaceOnUse">
      <stop stop-color="#686E73"/>
      <stop offset=".989" stop-color="#6A7075"/>
    </linearGradient>
    <linearGradient id="c" x1="47.5" x2="49.5" y1="38.5" y2="71.1" gradientUnits="userSpaceOnUse">
      <stop offset=".484" stop-color="#fff" stop-opacity="0"/>
      <stop offset="1" stop-color="#B3B2B2"/>
    </linearGradient>
    <clipPath id="a">
      <path fill="#fff" d="M0 0h100v100H0z"/>
    </clipPath>
    <filter id="d" width="85" height="46.101" x="11.5" y="30" color-interpolation-filters="sRGB" filterUnits="userSpaceOnUse">
      <feFlood flood-opacity="0" result="BackgroundImageFix"/>
      <feBlend in="SourceGraphic" in2="BackgroundImageFix" result="shape"/>
      <feGaussianBlur result="effect1_foregroundBlur_149_1427" stdDeviation="3.5"/>
    </filter>
  </defs>
</svg>

<svg width="100" height="100" viewBox="0 0 100 100" fill="none" xmlns="http://www.w3.org/2000/svg">
<g clip-path="url(#clip0_149_1427)">
<path fill-rule="evenodd" clip-rule="evenodd" d="M28.4427 13.5646C28.4427 9.69627 27.3268 6.05115 25.5415 2.92676C35.2069 4.16064 42.7878 11.8375 43.9187 21.5336C39.9745 23.6749 36.524 26.7068 33.9 30.3999H32.8C27.9 30.3999 23.4 32.6999 20.7 36.5999C16.6415 36.8434 12.8466 38.2729 9.68955 40.7278C7.57913 39.0479 5.78488 36.9738 4.41464 34.617C5.30733 34.7658 6.20001 34.8402 7.16708 34.8402C18.9207 34.8402 28.4427 25.3182 28.4427 13.5646Z" fill="url(#paint0_linear_149_1427)"/>
<path fill-rule="evenodd" clip-rule="evenodd" d="M57.7 23C69.4 23 79.4 31.6 81.3 42.9C87.5 44.5 92 50.2 92 56.8C92 64.7 85.5 71.1 77.6 71.1H61.3625C60.9568 70.0514 60.2664 69.2847 59.2 68.8L55.2 67.1L57.4 54.8C57.8 52.9 56.6 51 54.8 50.3C54.4 50.1 54 50 53.6 50C52.2 50 50.8 50.8 50.1 52.1L39.7718 71.1H21.9C18 71.1 14.3 69.6 11.6 66.9C8.7 64.2 7.1 60.5 7 56.4V56.2C7 52.4 8.5 48.8 11.2 46C14 43.1 17.8 41.5 21.9 41.5C22.5 41.5 23 41.5 23.6 41.6C25 37.9 28.6 35.4 32.8 35.4C34 35.4 35.2 35.6 36.4 36.1C40.4 28.1 48.6 23 57.7 23Z" fill="#999999"/>
<g opacity="0.6">
<path fill-rule="evenodd" clip-rule="evenodd" d="M57.7 23C69.4 23 79.4 31.6 81.3 42.9C87.5 44.5 92 50.2 92 56.8C92 64.7 85.5 71.1 77.6 71.1H61.3625C60.9568 70.0514 60.2664 69.2847 59.2 68.8L55.2 67.1L57.4 54.8C57.8 52.9 56.6 51 54.8 50.3C54.4 50.1 54 50 53.6 50C52.2 50 50.8 50.8 50.1 52.1L39.7718 71.1H21.9C18 71.1 14.3 69.6 11.6 66.9C8.7 64.2 7.1 60.5 7 56.4V56.2C7 52.4 8.5 48.8 11.2 46C14 43.1 17.8 41.5 21.9 41.5C22.5 41.5 23 41.5 23.6 41.6C25 37.9 28.6 35.4 32.8 35.4C34 35.4 35.2 35.6 36.4 36.1C40.4 28.1 48.6 23 57.7 23Z" fill="url(#paint1_linear_149_1427)" style="mix-blend-mode:multiply"/>
</g>
<path fill-rule="evenodd" clip-rule="evenodd" d="M50.8 69.4L53.6 54L43 73.5L50.1 76.5L45.5 94L57.7 72.4L50.8 69.4Z" fill="#FF9D00"/>
<path d="M26.7 82.5H23.9L25.3 80C25.7 79.4 25.5 78.5 24.8 78.2C24.1 77.8 23.3 78 22.9 78.7L21.5 81.1L20.1 78.7C19.7 78 18.9 77.8 18.3 78.2C17.9 78.4 17.7 78.7 17.6 79C17.5 79.3 17.6 79.7 17.7 80L19.1 82.4H16.4C15.6 82.5 15 83.1 15 83.8C15 84.5 15.6 85.2 16.4 85.2H19.2L17.8 87.6C17.6 87.9 17.6 88.3 17.7 88.6C17.8 88.9 18 89.2 18.3 89.4C18.9 89.8 19.8 89.5 20.1 88.9L21.5 86.5L22.9 89C23.1 89.4 23.6 89.7 24.1 89.7C24.3 89.7 24.6 89.6 24.8 89.5C25.4 89.1 25.7 88.3 25.3 87.7L23.9 85.2H26.7C27.4 85.2 28.1 84.6 28.1 83.8C28.1 83 27.4 82.5 26.7 82.5Z" fill="#00B8F1"/>
<path d="M77.7 91.5H74.9L76.3 89C76.7 88.4 76.5 87.5 75.8 87.2C75.1 86.8 74.3 87 73.9 87.7L72.5 90.1L71.1 87.7C70.7 87 69.9 86.8 69.3 87.2C68.9 87.4 68.7 87.7 68.6 88C68.5 88.3 68.6 88.7 68.7 89L70.1 91.4H67.4C66.6 91.5 66 92.1 66 92.8C66 93.5 66.6 94.2 67.4 94.2H70.2L68.8 96.6C68.6 96.9 68.6 97.3 68.7 97.6C68.8 97.9 69 98.2 69.3 98.4C69.9 98.8 70.8 98.5 71.1 97.9L72.5 95.5L73.9 98C74.1 98.4 74.6 98.7 75.1 98.7C75.3 98.7 75.6 98.6 75.8 98.5C76.4 98.1 76.7 97.3 76.3 96.7L74.9 94.2H77.7C78.4 94.2 79.1 93.6 79.1 92.8C79.1 92 78.4 91.5 77.7 91.5Z" fill="#00B8F1"/>
<path d="M86.5 92C86.2 92 85.8 91.9 85.5 91.8C84.2 91.2 83.7 89.8 84.2 88.5L87.7 80.5C88.3 79.2 89.7 78.7 91 79.2C92.3 79.8 92.8 81.2 92.3 82.5L88.8 90.5C88.4 91.5 87.5 92 86.5 92Z" fill="#006EDB"/>
<path d="M58.5 92C58.2 92 57.8 91.9 57.5 91.8C56.2 91.2 55.7 89.8 56.2 88.5L59.7 80.5C60.3 79.2 61.7 78.7 63 79.2C64.3 79.8 64.8 81.2 64.3 82.5L60.8 90.5C60.4 91.5 59.5 92 58.5 92Z" fill="#006EDB"/>
<path d="M33.5 99C33.2 99 32.8 98.9 32.5 98.8C31.2 98.2 30.7 96.8 31.2 95.5L34.7 87.5C35.3 86.2 36.7 85.7 38 86.2C39.3 86.8 39.8 88.2 39.3 89.5L35.8 97.5C35.4 98.5 34.5 99 33.5 99Z" fill="#006EDB"/>
</g>
<defs>
<linearGradient id="paint0_linear_149_1427" x1="12.9138" y1="43.4636" x2="40.2563" y2="10.8781" gradientUnits="userSpaceOnUse">
<stop stop-color="#686E73"/>
<stop offset="0.9891" stop-color="#6A7075"/>
</linearGradient>
<linearGradient id="paint1_linear_149_1427" x1="47.5" y1="38.5" x2="49.5" y2="71.1" gradientUnits="userSpaceOnUse">
<stop offset="0.484375" stop-color="white" stop-opacity="0"/>
<stop offset="1" stop-color="#B3B2B2"/>
</linearGradient>
<clipPath id="clip0_149_1427">
<rect width="100" height="100" fill="white"/>
</clipPath>
</defs>
</svg>
